Home-compleks/dist/img/logo.svg

<?xml version="1.0" encoding="UTF-8"?>
<svg viewBox="0 0 134 66" xmlns="http://www.w3.org/2000/svg">
<path d="m1.4062 37v-24.609h3.0586v10.723h3.1641v2.9883h-3.1641v10.898h-3.0586zm7.9805-10.898v-2.9883h3.1289v-10.723h3.0938v24.609h-3.0938v-10.898h-3.1289zm8.9649 5.6953v-8.6836c0-1.1016 0.4922-2.1797 1.4765-3.2344 1.2188-1.2656 2.7422-1.8984 4.5703-1.8984v2.8476c-1.3828 0-2.3437 0.5742-2.8828 1.7227-0.164 0.3515-0.2461 0.7031-0.2461 1.0547v7.7343c0 0.8672 0.3985 1.6055 1.1953 2.2149 0.5625 0.4219 1.2071 0.6328 1.9336 0.6328v2.8477c-2.2265 0-3.9492-0.9024-5.1679-2.7071-0.586-0.8906-0.8789-1.7343-0.8789-2.5312zm7.5586 5.2383v-2.8477c1.2421 0 2.1328-0.5625 2.6718-1.6875 0.1875-0.375 0.2813-0.7383 0.2813-1.0898v-7.8047c0-0.961-0.4102-1.7227-1.2305-2.2852-0.5156-0.3281-1.1016-0.4922-1.7578-0.4922v-2.8476c2.1562 0 3.8203 0.8789 4.9922 2.6367 0.5859 0.8672 0.8789 1.6992 0.8789 2.4961v8.6836c0 1.1484-0.4922 2.2617-1.4766 3.3398-1.1484 1.2422-2.6015 1.875-4.3593 1.8985zm8.5078-5.0977v-13.922h2.9882v13.57c0 0.8438 0.4219 1.5469 1.2657 2.1094 0.5625 0.3516 1.1836 0.5274 1.8633 0.5274v2.9531c-2.25 0-3.9844-0.8789-5.2032-2.6367-0.6093-0.8907-0.914-1.7579-0.914-2.6016zm7.664 5.2383v-2.9531c1.2657 0 2.1914-0.5039 2.7774-1.5118 0.2109-0.375 0.3164-0.75 0.3164-1.125v-13.57h2.9883v13.922c0 1.1016-0.5039 2.1914-1.5118 3.2695-1.2187 1.2891-2.7421 1.9453-4.5703 1.9688zm8.1211-5.168 2.7774-0.5273c0 1.0547 0.5507 1.8867 1.6523 2.4961 0.5391 0.2578 1.0547 0.3984 1.5469 0.4218v2.7774c-2.2735 0-3.9727-0.8203-5.0977-2.461-0.5859-0.8671-0.8789-1.7695-0.8789-2.707zm0.1758-8.6484c0-2.1328 0.9727-3.7149 2.918-4.7461 0.9375-0.4922 1.875-0.7383 2.8125-0.7383v2.7422c-1.0782 0-1.9102 0.4453-2.4961 1.3359-0.3047 0.4453-0.4571 0.9141-0.4571 1.4063 0 0.75 0.586 1.3594 1.7579 1.8281 0.8906 0.375 2.6132 0.8672 5.1679 1.4766 1.5938 0.3281 2.7305 1.1132 3.4102 2.3554 0.3516 0.6563 0.5273 1.3946 0.5273 2.2149 0 2.25-0.9023 3.914-2.707 4.9922-1.0547 0.6328-2.2617 0.9492-3.6211 0.9492v-2.7774c1.0781 0 1.9805-0.375 2.707-1.125 0.5157-0.539 0.7735-1.1718 0.7735-1.8984 0-0.9375-0.9258-1.6875-2.7774-2.25-0.4687-0.1406-1.2187-0.3398-2.25-0.5977-1.1015-0.2578-1.8984-0.4687-2.3906-0.6328-1.7812-0.7031-2.8594-1.7695-3.2344-3.1992-0.0937-0.4219-0.1406-0.8672-0.1406-1.3359zm7.2773-2.7071v-2.7773c2.0157 0 3.6446 0.75 4.8868 2.25 0.7734 0.9609 1.1601 1.9688 1.1601 3.0234l-2.7773 0.4571c0-1.2891-0.7031-2.1914-2.1094-2.7071-0.4219-0.164-0.8086-0.2461-1.1602-0.2461zm8.4376 11.145v-8.7188c0.0234-1.0781 0.539-2.1445 1.5468-3.1992 1.2188-1.2422 2.6953-1.875 4.4297-1.8984v2.7773c-1.125 0-2.0039 0.4922-2.6367 1.4766-0.2578 0.4218-0.3867 0.8086-0.3867 1.1601v2.3907h7.875v-2.3907c0-1.0547-0.5391-1.8281-1.6172-2.3203-0.4922-0.2344-0.9961-0.3515-1.5117-0.3515v-2.7422c1.6172 0 3.0586 0.5742 4.3242 1.7226 1.0547 1.0078 1.5937 2.1211 1.6172 3.3399v5.5898h-10.688v3.1641c0 0.6562 0.375 1.2656 1.125 1.8281 0.6093 0.4219 1.2539 0.6328 1.9336 0.6328v2.7422c-2.1328 0-3.8086-0.8672-5.0274-2.6016-0.6562-0.914-0.9843-1.7812-0.9843-2.6015zm7.6992 5.2031v-2.7773c1.4062 0 2.4609-0.6094 3.164-1.8282 0.1407-0.2578 0.2461-0.5039 0.3164-0.7383l2.4961 0.9141c-0.4218 1.6172-1.3828 2.8359-2.8828 3.6563-0.9609 0.5156-1.9922 0.7734-3.0937 0.7734zm7.6992-24.609h3.0937l6.2579 21.375-1.125 3.2344h-1.0899l-7.1367-24.609zm8.5781 13.043 4.3594-13.043h3.0937c-0.2109 0.6797-1.0898 3.3985-2.6367 8.1563-1.8047 5.5312-2.8359 8.707-3.0937 9.5273h-0.3516l-1.3711-4.6406zm9.1406 4.7109v-11.566c0-1.2422 0.5274-2.5078 1.5821-3.7969 1.406-1.6874 3.187-2.5429 5.344-2.5664v3.0586c-1.43 0-2.543 0.7266-3.34 2.1797-0.328 0.6328-0.492 1.1953-0.492 1.6875v11.004c0 1.4766 0.726 2.625 2.179 3.4453 0.61 0.3516 1.149 0.5274 1.618 0.5274v3.0586c-1.336 0-2.672-0.4805-4.008-1.4414-1.899-1.4063-2.8596-3.2696-2.8831-5.5899zm8.8241 7.0313v-3.0586c0.82 0 1.653-0.3633 2.496-1.0899 0.891-0.7968 1.348-1.7578 1.371-2.8828v-11.004c0-0.914-0.375-1.7929-1.125-2.6367-0.773-0.7969-1.687-1.207-2.742-1.2305v-3.0586c2.367 0 4.266 1.0196 5.695 3.0586 0.821 1.1719 1.231 2.2735 1.231 3.3047v11.566c0 2.6016-1.16 4.5938-3.481 5.9766-1.218 0.7031-2.367 1.0547-3.445 1.0547zm9.774-0.1758h3.058v-24.609h-3.058v24.609zm4.816-11.004h3.797c3.07-0.0234 4.992-1.1953 5.766-3.5156 0.304-0.9375 0.457-2.0508 0.457-3.3399 0-4.289-1.934-6.539-5.801-6.75h-0.422-3.797v2.9532h3.305c2.367 0.0468 3.562 1.3124 3.586 3.7968-0.047 2.5547-1.231 3.8438-3.551 3.8672h-3.34v2.9883z" fill="#fff"/>
<path d="m2.892 58.584-2.544-4.104h0.96l2.304 3.78h1.596v-3.78h0.924v3.78h1.596l2.292-3.78h0.972l-2.556 4.104 2.868 4.416h-0.972l-2.484-3.996h-1.716v3.996h-0.924v-3.996h-1.716l-2.484 3.996h-0.972l2.856-4.416zm11.812 3.156 5.28-7.26h0.696v8.52h-0.84v-7.14l-5.196 7.14h-0.768v-8.52h0.828v7.26zm11.508-5.004c-0.096 1.128-0.22 2.092-0.372 2.892-0.144 0.8-0.328 1.456-0.552 1.968-0.216 0.504-0.48 0.876-0.792 1.116-0.304 0.232-0.664 0.348-1.08 0.348l-0.144-0.804c0.16-8e-3 0.312-0.04 0.456-0.096 0.152-0.056 0.296-0.156 0.432-0.3 0.136-0.152 0.264-0.356 0.384-0.612 0.12-0.264 0.232-0.6 0.336-1.008 0.104-0.416 0.196-0.916 0.276-1.5 0.088-0.584 0.164-1.276 0.228-2.076l0.18-2.184h4.332v8.52h-0.828v-7.776h-2.736l-0.12 1.512zm10.745 6.324c-0.592 0-1.136-0.12-1.632-0.36-0.488-0.248-0.908-0.572-1.26-0.972-0.352-0.408-0.624-0.872-0.816-1.392s-0.288-1.052-0.288-1.596c0-0.568 0.1-1.112 0.3-1.632 0.208-0.52 0.492-0.98 0.852-1.38s0.784-0.716 1.272-0.948c0.488-0.24 1.016-0.36 1.584-0.36 0.592 0 1.132 0.128 1.62 0.384 0.496 0.248 0.916 0.576 1.26 0.984 0.352 0.408 0.624 0.872 0.816 1.392 0.192 0.512 0.288 1.036 0.288 1.572 0 0.568-0.104 1.112-0.312 1.632-0.2 0.52-0.48 0.98-0.84 1.38-0.352 0.392-0.772 0.708-1.26 0.948-0.488 0.232-1.016 0.348-1.584 0.348zm-3.156-4.32c0 0.464 0.076 0.912 0.228 1.344 0.152 0.424 0.368 0.804 0.648 1.14 0.28 0.328 0.612 0.592 0.996 0.792 0.384 0.192 0.812 0.288 1.284 0.288 0.48 0 0.916-0.104 1.308-0.312s0.724-0.48 0.996-0.816 0.48-0.716 0.624-1.14c0.152-0.424 0.228-0.856 0.228-1.296 0-0.464-0.08-0.908-0.24-1.332-0.152-0.432-0.368-0.812-0.648-1.14s-0.612-0.588-0.996-0.78c-0.384-0.2-0.808-0.3-1.272-0.3-0.48 0-0.916 0.104-1.308 0.312-0.392 0.2-0.724 0.468-0.996 0.804s-0.484 0.716-0.636 1.14c-0.144 0.424-0.216 0.856-0.216 1.296zm15.456-6.732c-0.016 0.384-0.18 0.692-0.492 0.924-0.304 0.224-0.728 0.336-1.272 0.336s-0.972-0.112-1.284-0.336c-0.304-0.232-0.464-0.54-0.48-0.924h0.516c0 0.104 0.032 0.204 0.096 0.3s0.152 0.18 0.264 0.252 0.244 0.132 0.396 0.18c0.152 0.04 0.32 0.06 0.504 0.06 0.344 0 0.628-0.072 0.852-0.216 0.232-0.152 0.364-0.344 0.396-0.576h0.504zm-4.44 9.732 5.28-7.26h0.696v8.52h-0.84v-7.14l-5.196 7.14h-0.768v-8.52h0.828v7.26zm14.915-3.48h1.296l2.784-3.78h0.96l-2.988 4.104 3.3 4.416h-0.96l-3.024-3.996h-1.368v3.996h-0.828v-8.52h0.828v3.78zm10.923 4.8c-0.592 0-1.136-0.12-1.632-0.36-0.488-0.248-0.908-0.572-1.26-0.972-0.352-0.408-0.624-0.872-0.816-1.392s-0.288-1.052-0.288-1.596c0-0.568 0.1-1.112 0.3-1.632 0.208-0.52 0.492-0.98 0.852-1.38s0.784-0.716 1.272-0.948c0.488-0.24 1.016-0.36 1.584-0.36 0.592 0 1.132 0.128 1.62 0.384 0.496 0.248 0.916 0.576 1.26 0.984 0.352 0.408 0.624 0.872 0.816 1.392 0.192 0.512 0.288 1.036 0.288 1.572 0 0.568-0.104 1.112-0.312 1.632-0.2 0.52-0.48 0.98-0.84 1.38-0.352 0.392-0.772 0.708-1.26 0.948-0.488 0.232-1.016 0.348-1.584 0.348zm-3.156-4.32c0 0.464 0.076 0.912 0.228 1.344 0.152 0.424 0.368 0.804 0.648 1.14 0.28 0.328 0.612 0.592 0.996 0.792 0.384 0.192 0.812 0.288 1.284 0.288 0.48 0 0.916-0.104 1.308-0.312s0.724-0.48 0.996-0.816 0.48-0.716 0.624-1.14c0.152-0.424 0.228-0.856 0.228-1.296 0-0.464-0.08-0.908-0.24-1.332-0.152-0.432-0.368-0.812-0.648-1.14s-0.612-0.588-0.996-0.78c-0.384-0.2-0.808-0.3-1.272-0.3-0.48 0-0.916 0.104-1.308 0.312-0.392 0.2-0.724 0.468-0.996 0.804s-0.484 0.716-0.636 1.14c-0.144 0.424-0.216 0.856-0.216 1.296zm17.724 4.26v-6.996l-3.108 5.412h-0.492l-3.108-5.412v6.996h-0.84v-8.52h0.864l3.324 5.832 3.348-5.832h0.852v8.52h-0.84zm4.4626-8.52h6.576v8.52h-0.84v-7.776h-4.908v7.776h-0.828v-8.52zm12.102 2.256c-0.096 1.128-0.22 2.092-0.372 2.892-0.144 0.8-0.328 1.456-0.552 1.968-0.216 0.504-0.48 0.876-0.792 1.116-0.304 0.232-0.664 0.348-1.08 0.348l-0.144-0.804c0.16-8e-3 0.312-0.04 0.456-0.096 0.152-0.056 0.296-0.156 0.432-0.3 0.136-0.152 0.264-0.356 0.384-0.612 0.12-0.264 0.232-0.6 0.336-1.008 0.104-0.416 0.196-0.916 0.276-1.5 0.088-0.584 0.164-1.276 0.228-2.076l0.18-2.184h4.332v8.52h-0.828v-7.776h-2.736l-0.12 1.512zm13.037 5.52v0.744h-5.724v-8.52h5.616v0.744h-4.776v3.072h4.164v0.708h-4.164v3.252h4.884zm3.868-3.996h1.296l2.784-3.78h0.96l-2.988 4.104 3.3 4.416h-0.96l-3.024-3.996h-1.368v3.996h-0.828v-8.52h0.828v3.78zm6.915 0.42c0-0.512 0.088-1.02 0.264-1.524 0.184-0.512 0.448-0.968 0.792-1.368s0.768-0.724 1.272-0.972c0.504-0.256 1.076-0.384 1.716-0.384 0.76 0 1.408 0.172 1.944 0.516 0.544 0.344 0.944 0.792 1.2 1.344l-0.66 0.408c-0.136-0.28-0.304-0.516-0.504-0.708-0.192-0.192-0.4-0.348-0.624-0.468s-0.456-0.204-0.696-0.252c-0.24-0.056-0.476-0.084-0.708-0.084-0.512 0-0.964 0.104-1.356 0.312s-0.724 0.48-0.996 0.816c-0.264 0.336-0.464 0.716-0.6 1.14-0.136 0.416-0.204 0.84-0.204 1.272 0 0.472 0.08 0.924 0.24 1.356 0.168 0.432 0.392 0.816 0.672 1.152 0.288 0.328 0.624 0.592 1.008 0.792 0.392 0.192 0.816 0.288 1.272 0.288 0.24 0 0.484-0.028 0.732-0.084 0.256-0.064 0.5-0.16 0.732-0.288 0.24-0.136 0.46-0.3 0.66-0.492 0.2-0.2 0.368-0.44 0.504-0.72l0.696 0.36c-0.136 0.32-0.328 0.604-0.576 0.852-0.248 0.24-0.524 0.444-0.828 0.612s-0.628 0.296-0.972 0.384c-0.336 0.088-0.668 0.132-0.996 0.132-0.584 0-1.12-0.128-1.608-0.384s-0.908-0.588-1.26-0.996c-0.352-0.416-0.628-0.884-0.828-1.404-0.192-0.528-0.288-1.064-0.288-1.608z" fill="#fff"/>
</svg>

<svg width="134" height="66" viewBox="0 0 134 66" fill="none" xmlns="http://www.w3.org/2000/svg">
<path d="M1.40625 37V12.3906H4.46484V23.1133H7.62891V26.1016H4.46484V37H1.40625ZM9.38672 26.1016V23.1133H12.5156V12.3906H15.6094V37H12.5156V26.1016H9.38672ZM18.3516 31.7969V23.1133C18.3516 22.0117 18.8438 20.9336 19.8281 19.8789C21.0469 18.6133 22.5703 17.9805 24.3984 17.9805V20.8281C23.0156 20.8281 22.0547 21.4023 21.5156 22.5508C21.3516 22.9023 21.2695 23.2539 21.2695 23.6055V31.3398C21.2695 32.207 21.668 32.9453 22.4648 33.5547C23.0273 33.9766 23.6719 34.1875 24.3984 34.1875V37.0352C22.1719 37.0352 20.4492 36.1328 19.2305 34.3281C18.6445 33.4375 18.3516 32.5938 18.3516 31.7969ZM25.9102 37.0352V34.1875C27.1523 34.1875 28.043 33.625 28.582 32.5C28.7695 32.125 28.8633 31.7617 28.8633 31.4102V23.6055C28.8633 22.6445 28.4531 21.8828 27.6328 21.3203C27.1172 20.9922 26.5312 20.8281 25.875 20.8281V17.9805C28.0312 17.9805 29.6953 18.8594 30.8672 20.6172C31.4531 21.4844 31.7461 22.3164 31.7461 23.1133V31.7969C31.7461 32.9453 31.2539 34.0586 30.2695 35.1367C29.1211 36.3789 27.668 37.0117 25.9102 37.0352ZM34.418 31.9375V18.0156H37.4062V31.5859C37.4062 32.4297 37.8281 33.1328 38.6719 33.6953C39.2344 34.0469 39.8555 34.2227 40.5352 34.2227V37.1758C38.2852 37.1758 36.5508 36.2969 35.332 34.5391C34.7227 33.6484 34.418 32.7812 34.418 31.9375ZM42.082 37.1758V34.2227C43.3477 34.2227 44.2734 33.7188 44.8594 32.7109C45.0703 32.3359 45.1758 31.9609 45.1758 31.5859V18.0156H48.1641V31.9375C48.1641 33.0391 47.6602 34.1289 46.6523 35.207C45.4336 36.4961 43.9102 37.1523 42.082 37.1758ZM50.2031 32.0078L52.9805 31.4805C52.9805 32.5352 53.5312 33.3672 54.6328 33.9766C55.1719 34.2344 55.6875 34.375 56.1797 34.3984V37.1758C53.9062 37.1758 52.207 36.3555 51.082 34.7148C50.4961 33.8477 50.2031 32.9453 50.2031 32.0078ZM50.3789 23.3594C50.3789 21.2266 51.3516 19.6445 53.2969 18.6133C54.2344 18.1211 55.1719 17.875 56.1094 17.875V20.6172C55.0312 20.6172 54.1992 21.0625 53.6133 21.9531C53.3086 22.3984 53.1562 22.8672 53.1562 23.3594C53.1562 24.1094 53.7422 24.7188 54.9141 25.1875C55.8047 25.5625 57.5273 26.0547 60.082 26.6641C61.6758 26.9922 62.8125 27.7773 63.4922 29.0195C63.8438 29.6758 64.0195 30.4141 64.0195 31.2344C64.0195 33.4844 63.1172 35.1484 61.3125 36.2266C60.2578 36.8594 59.0508 37.1758 57.6914 37.1758V34.3984C58.7695 34.3984 59.6719 34.0234 60.3984 33.2734C60.9141 32.7344 61.1719 32.1016 61.1719 31.375C61.1719 30.4375 60.2461 29.6875 58.3945 29.125C57.9258 28.9844 57.1758 28.7852 56.1445 28.5273C55.043 28.2695 54.2461 28.0586 53.7539 27.8945C51.9727 27.1914 50.8945 26.125 50.5195 24.6953C50.4258 24.2734 50.3789 23.8281 50.3789 23.3594ZM57.6562 20.6523V17.875C59.6719 17.875 61.3008 18.625 62.543 20.125C63.3164 21.0859 63.7031 22.0938 63.7031 23.1484L60.9258 23.6055C60.9258 22.3164 60.2227 21.4141 58.8164 20.8984C58.3945 20.7344 58.0078 20.6523 57.6562 20.6523ZM66.0938 31.7969V23.0781C66.1172 22 66.6328 20.9336 67.6406 19.8789C68.8594 18.6367 70.3359 18.0039 72.0703 17.9805V20.7578C70.9453 20.7578 70.0664 21.25 69.4336 22.2344C69.1758 22.6562 69.0469 23.043 69.0469 23.3945V25.7852H76.9219V23.3945C76.9219 22.3398 76.3828 21.5664 75.3047 21.0742C74.8125 20.8398 74.3086 20.7227 73.793 20.7227V17.9805C75.4102 17.9805 76.8516 18.5547 78.1172 19.7031C79.1719 20.7109 79.7109 21.8242 79.7344 23.043V28.6328H69.0469V31.7969C69.0469 32.4531 69.4219 33.0625 70.1719 33.625C70.7812 34.0469 71.4258 34.2578 72.1055 34.2578V37C69.9727 37 68.2969 36.1328 67.0781 34.3984C66.4219 33.4844 66.0938 32.6172 66.0938 31.7969ZM73.793 37V34.2227C75.1992 34.2227 76.2539 33.6133 76.957 32.3945C77.0977 32.1367 77.2031 31.8906 77.2734 31.6562L79.7695 32.5703C79.3477 34.1875 78.3867 35.4062 76.8867 36.2266C75.9258 36.7422 74.8945 37 73.793 37ZM81.4922 12.3906H84.5859L90.8438 33.7656L89.7188 37H88.6289L81.4922 12.3906ZM90.0703 25.4336L94.4297 12.3906H97.5234C97.3125 13.0703 96.4336 15.7891 94.8867 20.5469C93.082 26.0781 92.0508 29.2539 91.793 30.0742H91.4414L90.0703 25.4336ZM99.2109 30.1445V18.5781C99.2109 17.3359 99.7383 16.0703 100.793 14.7812C102.199 13.0938 103.98 12.2383 106.137 12.2148V15.2734C104.707 15.2734 103.594 16 102.797 17.4531C102.469 18.0859 102.305 18.6484 102.305 19.1406V30.1445C102.305 31.6211 103.031 32.7695 104.484 33.5898C105.094 33.9414 105.633 34.1172 106.102 34.1172V37.1758C104.766 37.1758 103.43 36.6953 102.094 35.7344C100.195 34.3281 99.2344 32.4648 99.2109 30.1445ZM108.035 37.1758V34.1172C108.855 34.1172 109.688 33.7539 110.531 33.0273C111.422 32.2305 111.879 31.2695 111.902 30.1445V19.1406C111.902 18.2266 111.527 17.3477 110.777 16.5039C110.004 15.707 109.09 15.2969 108.035 15.2734V12.2148C110.402 12.2148 112.301 13.2344 113.73 15.2734C114.551 16.4453 114.961 17.5469 114.961 18.5781V30.1445C114.961 32.7461 113.801 34.7383 111.48 36.1211C110.262 36.8242 109.113 37.1758 108.035 37.1758ZM117.809 37H120.867V12.3906H117.809V37ZM122.625 25.9961H126.422C129.492 25.9727 131.414 24.8008 132.188 22.4805C132.492 21.543 132.645 20.4297 132.645 19.1406C132.645 14.8516 130.711 12.6016 126.844 12.3906C126.703 12.3906 126.562 12.3906 126.422 12.3906H122.625V15.3438H125.93C128.297 15.3906 129.492 16.6562 129.516 19.1406C129.469 21.6953 128.285 22.9844 125.965 23.0078H122.625V25.9961Z" fill="white"/>
<path d="M2.892 58.584L0.348 54.48H1.308L3.612 58.26H5.208V54.48H6.132V58.26H7.728L10.02 54.48H10.992L8.436 58.584L11.304 63H10.332L7.848 59.004H6.132V63H5.208V59.004H3.492L1.008 63H0.036L2.892 58.584ZM14.7038 61.74L19.9838 54.48H20.6798V63H19.8398V55.86L14.6438 63H13.8758V54.48H14.7038V61.74ZM26.2123 56.736C26.1163 57.864 25.9923 58.828 25.8403 59.628C25.6963 60.428 25.5123 61.084 25.2883 61.596C25.0723 62.1 24.8083 62.472 24.4963 62.712C24.1923 62.944 23.8323 63.06 23.4163 63.06L23.2723 62.256C23.4323 62.248 23.5843 62.216 23.7283 62.16C23.8803 62.104 24.0243 62.004 24.1603 61.86C24.2963 61.708 24.4243 61.504 24.5443 61.248C24.6643 60.984 24.7763 60.648 24.8803 60.24C24.9843 59.824 25.0763 59.324 25.1563 58.74C25.2443 58.156 25.3203 57.464 25.3843 56.664L25.5643 54.48H29.8963V63H29.0683V55.224H26.3323L26.2123 56.736ZM36.957 63.06C36.365 63.06 35.821 62.94 35.325 62.7C34.837 62.452 34.417 62.128 34.065 61.728C33.713 61.32 33.441 60.856 33.249 60.336C33.057 59.816 32.961 59.284 32.961 58.74C32.961 58.172 33.061 57.628 33.261 57.108C33.469 56.588 33.753 56.128 34.113 55.728C34.473 55.328 34.897 55.012 35.385 54.78C35.873 54.54 36.401 54.42 36.969 54.42C37.561 54.42 38.101 54.548 38.589 54.804C39.085 55.052 39.505 55.38 39.849 55.788C40.201 56.196 40.473 56.66 40.665 57.18C40.857 57.692 40.953 58.216 40.953 58.752C40.953 59.32 40.849 59.864 40.641 60.384C40.441 60.904 40.161 61.364 39.801 61.764C39.449 62.156 39.029 62.472 38.541 62.712C38.053 62.944 37.525 63.06 36.957 63.06ZM33.801 58.74C33.801 59.204 33.877 59.652 34.029 60.084C34.181 60.508 34.397 60.888 34.677 61.224C34.957 61.552 35.289 61.816 35.673 62.016C36.057 62.208 36.485 62.304 36.957 62.304C37.437 62.304 37.873 62.2 38.265 61.992C38.657 61.784 38.989 61.512 39.261 61.176C39.533 60.84 39.741 60.46 39.885 60.036C40.037 59.612 40.113 59.18 40.113 58.74C40.113 58.276 40.033 57.832 39.873 57.408C39.721 56.976 39.505 56.596 39.225 56.268C38.945 55.94 38.613 55.68 38.229 55.488C37.845 55.288 37.421 55.188 36.957 55.188C36.477 55.188 36.041 55.292 35.649 55.5C35.257 55.7 34.925 55.968 34.653 56.304C34.381 56.64 34.169 57.02 34.017 57.444C33.873 57.868 33.801 58.3 33.801 58.74ZM49.2567 52.008C49.2407 52.392 49.0767 52.7 48.7647 52.932C48.4607 53.156 48.0367 53.268 47.4927 53.268C46.9487 53.268 46.5207 53.156 46.2087 52.932C45.9047 52.7 45.7447 52.392 45.7287 52.008H46.2447C46.2447 52.112 46.2767 52.212 46.3407 52.308C46.4047 52.404 46.4927 52.488 46.6047 52.56C46.7167 52.632 46.8487 52.692 47.0007 52.74C47.1527 52.78 47.3207 52.8 47.5047 52.8C47.8487 52.8 48.1327 52.728 48.3567 52.584C48.5887 52.432 48.7207 52.24 48.7527 52.008H49.2567ZM44.8167 61.74L50.0967 54.48H50.7927V63H49.9527V55.86L44.7567 63H43.9887V54.48H44.8167V61.74ZM59.7319 58.26H61.0279L63.8119 54.48H64.7719L61.7839 58.584L65.0839 63H64.1239L61.0999 59.004H59.7319V63H58.9039V54.48H59.7319V58.26ZM70.6545 63.06C70.0625 63.06 69.5185 62.94 69.0225 62.7C68.5345 62.452 68.1145 62.128 67.7625 61.728C67.4105 61.32 67.1385 60.856 66.9465 60.336C66.7545 59.816 66.6585 59.284 66.6585 58.74C66.6585 58.172 66.7585 57.628 66.9585 57.108C67.1665 56.588 67.4505 56.128 67.8105 55.728C68.1705 55.328 68.5945 55.012 69.0825 54.78C69.5705 54.54 70.0985 54.42 70.6665 54.42C71.2585 54.42 71.7985 54.548 72.2865 54.804C72.7825 55.052 73.2025 55.38 73.5465 55.788C73.8985 56.196 74.1705 56.66 74.3625 57.18C74.5545 57.692 74.6505 58.216 74.6505 58.752C74.6505 59.32 74.5465 59.864 74.3385 60.384C74.1385 60.904 73.8585 61.364 73.4985 61.764C73.1465 62.156 72.7265 62.472 72.2385 62.712C71.7505 62.944 71.2225 63.06 70.6545 63.06ZM67.4985 58.74C67.4985 59.204 67.5745 59.652 67.7265 60.084C67.8785 60.508 68.0945 60.888 68.3745 61.224C68.6545 61.552 68.9865 61.816 69.3705 62.016C69.7545 62.208 70.1825 62.304 70.6545 62.304C71.1345 62.304 71.5705 62.2 71.9625 61.992C72.3545 61.784 72.6865 61.512 72.9585 61.176C73.2305 60.84 73.4385 60.46 73.5825 60.036C73.7345 59.612 73.8105 59.18 73.8105 58.74C73.8105 58.276 73.7305 57.832 73.5705 57.408C73.4185 56.976 73.2025 56.596 72.9225 56.268C72.6425 55.94 72.3105 55.68 71.9265 55.488C71.5425 55.288 71.1185 55.188 70.6545 55.188C70.1745 55.188 69.7385 55.292 69.3465 55.5C68.9545 55.7 68.6225 55.968 68.3505 56.304C68.0785 56.64 67.8665 57.02 67.7145 57.444C67.5705 57.868 67.4985 58.3 67.4985 58.74ZM85.2222 63V56.004L82.1142 61.416H81.6222L78.5142 56.004V63H77.6742V54.48H78.5382L81.8622 60.312L85.2102 54.48H86.0622V63H85.2222ZM89.6848 54.48H96.2608V63H95.4208V55.224H90.5128V63H89.6848V54.48ZM101.787 56.736C101.691 57.864 101.567 58.828 101.415 59.628C101.271 60.428 101.087 61.084 100.863 61.596C100.647 62.1 100.383 62.472 100.071 62.712C99.767 62.944 99.407 63.06 98.991 63.06L98.847 62.256C99.007 62.248 99.159 62.216 99.303 62.16C99.455 62.104 99.599 62.004 99.735 61.86C99.871 61.708 99.999 61.504 100.119 61.248C100.239 60.984 100.351 60.648 100.455 60.24C100.559 59.824 100.651 59.324 100.731 58.74C100.819 58.156 100.895 57.464 100.959 56.664L101.139 54.48H105.471V63H104.643V55.224H101.907L101.787 56.736ZM114.824 62.256V63H109.1V54.48H114.716V55.224H109.94V58.296H114.104V59.004H109.94V62.256H114.824ZM118.692 58.26H119.988L122.772 54.48H123.732L120.744 58.584L124.044 63H123.084L120.06 59.004H118.692V63H117.864V54.48H118.692V58.26ZM125.607 58.68C125.607 58.168 125.695 57.66 125.871 57.156C126.055 56.644 126.319 56.188 126.663 55.788C127.007 55.388 127.431 55.064 127.935 54.816C128.439 54.56 129.011 54.432 129.651 54.432C130.411 54.432 131.059 54.604 131.595 54.948C132.139 55.292 132.539 55.74 132.795 56.292L132.135 56.7C131.999 56.42 131.831 56.184 131.631 55.992C131.439 55.8 131.231 55.644 131.007 55.524C130.783 55.404 130.551 55.32 130.311 55.272C130.071 55.216 129.835 55.188 129.603 55.188C129.091 55.188 128.639 55.292 128.247 55.5C127.855 55.708 127.523 55.98 127.251 56.316C126.987 56.652 126.787 57.032 126.651 57.456C126.515 57.872 126.447 58.296 126.447 58.728C126.447 59.2 126.527 59.652 126.687 60.084C126.855 60.516 127.079 60.9 127.359 61.236C127.647 61.564 127.983 61.828 128.367 62.028C128.759 62.22 129.183 62.316 129.639 62.316C129.879 62.316 130.123 62.288 130.371 62.232C130.627 62.168 130.871 62.072 131.103 61.944C131.343 61.808 131.563 61.644 131.763 61.452C131.963 61.252 132.131 61.012 132.267 60.732L132.963 61.092C132.827 61.412 132.635 61.696 132.387 61.944C132.139 62.184 131.863 62.388 131.559 62.556C131.255 62.724 130.931 62.852 130.587 62.94C130.251 63.028 129.919 63.072 129.591 63.072C129.007 63.072 128.471 62.944 127.983 62.688C127.495 62.432 127.075 62.1 126.723 61.692C126.371 61.276 126.095 60.808 125.895 60.288C125.703 59.76 125.607 59.224 125.607 58.68Z" fill="white"/>
</svg>
